!!!COM:	Busnoys, Antoine
!!!CDT:	~1430///-1492/11/06
!!!OTL:	Mon seul et cele souvenir
!!!AGN:	Song; Chanson
!!!SCT:	Bus3044
!!!SCA:	Bus3044
!!!voices:	3
**kern	**kern	**kern
*staff3	*staff2	*staff1
*Ivox	*Ivox	*Ivox
*I"Contratenor	*I"Tenor	*I"Superius
*I'Ct	*I'T	*I'S
*clefF4	*clefGv2	*clefG2
*k[b-]	*k[b-]	*k[b-]
*M2/1	*M2/1	*M2/1
*met(C|)	*met(C|)	*met(C|)
=1-	=1-	=1-
!	!	!LO:TX:Z=32:t=Rondeau
0G	0r	0r
=2	=2	=2
1F	0r	0r
1F	.	.
=3	=3	=3
0B-	0r	0g
=4	=4	=4
0A	0r	1f
.	.	1f
=5	=5	=5
1r	0G	0b-
1G	.	.
=6	=6	=6
0D	1F	0a
.	1F	.
=7	=7	=7
0GG	0B-	1r
.	.	1g
=8	=8	=8
0D	0A	1f
.	.	1f
=9	=9	=9
0GG	1r	1g
.	1G	1b-
=10	=10	=10
2.D	1F	1a
8CL	.	.
8BB-J	.	.
1AA	1F	1cc
=11	=11	=11
0GG	1G	1.b-
.	1B-	.
.	.	4a
.	.	4g
=12	=12	=12
1D	1A	1f
1C	1c	1e
=13	=13	=13
1G	1B-	1d
1E	1G	[1g
=14	=14	=14
0D	0A	1g]
.	.	1f#i
=15	=15	=15
1r	[0G	0g
1BB-	.	.
=16	=16	=16
0GG	0G]	1r
.	.	1g
=17	=17	=17
1D	1r	1f
1E	1G	1g
=18	=18	=18
1D	1F	1a
1GG	1G	2b-
.	.	2g
=19	=19	=19
2r	1A	1f
2D	.	.
1GG	2B-	1g
.	2G	.
=20	=20	=20
2.D	1F	1a
4C	.	.
1BB-	1G	1d
=21	=21	=21
1AA	1A	1c
2.A	1D	1f
8GL	.	.
8FJ	.	.
=22	=22	=22
2G	1C	2e
2E	.	2g
2r	2D	2f
2D	2F	[2d
=23	=23	=23
1AA	1E	2d]
.	.	2c#i
2BB-	2D	2d
2GG	[2G	2B-
=24	=24	=24
1D	2G]	1A
.	2F#i	.
1GG	1G	2G
.	.	[2B-
=25	=25	=25
1D	2r	2B-]
.	2F	2A
[1GG	1G	2G
.	.	[2d
=26	=26	=26
2GG]	1B-	2d]
2BB-	.	2g
2FF	2A	2f
[2C	[2G	[2e
=27	=27	=27
2C]	2G]	2e]
2D	2F	1d
1AA	1E	.
.	.	2c#i
=28	=28	=28
1r	[0D	0d
[1A	.	.
=29	=29	=29
2A]	0D]	1r
1F	.	.
.	.	1f
2D	.	.
=30	=30	=30
1E	1r	1g
1D	1F	1a
=31	=31	=31
1GG	1G	2r
.	.	1b-
2r	1A	.
2FF	.	2cc
=32	=32	=32
1BB-	2r	2b-
.	2B-	1b-
1F	1c	.
.	.	2a
=33	=33	=33
1.BB-	0B-	2.b-
.	.	4a
.	.	1g
2C	.	.
=34	=34	=34
1D	1A	1f
1E-i	1G	[1b-
=35	=35	=35
1D	1d	1b-]
1F	1c	1a
=36	=36	=36
0G	0B-	1.g
.	.	4f#i
.	.	4e
=37	=37	=37
[0D	0A	[0f#i
=38	=38	=38
0D]N	[0d	0f#]N
=39	=39	=39
0r	0d]N	0r
=40	=40	=40
0D	0d	0f
=41	=41	=41
1C	0e-i	0g
1C	.	.
=42	=42	=42
1r	1d	1f
1BB-	1B-	[1b-
=43	=43	=43
0F	0c	1b-]
.	.	1a
=44	=44	=44
1BB-	1B-	1b-
[1F	2A	2.cc
.	[2c	.
.	.	4b-
=45	=45	=45
1F]	2c]	1a
.	2A	.
1G	2.B-	1g
.	4A	.
=46	=46	=46
1E-i	1G	2r
.	.	2b-
2r	1F	2a
2F	.	2f
=47	=47	=47
1C	1E	1g
1F	1D	1f
=48	=48	=48
1C	1G	1e
1D	1F	2d
.	.	[2d
=49	=49	=49
1r	0E	2d]
.	.	2c#i
2r	.	2c#i
2AA	.	2Bni
=50	=50	=50
1BB-	2r	1d
.	2D	.
1GG	1G	1d
=51	=51	=51
1D	1F	2r
.	.	2d
1GG	1B-	1g
=52	=52	=52
1.D	1A	1f
.	2r	1b-
2E	2d	.
=53	=53	=53
1F	2.c	1a
.	8B-L	.
.	8AJ	.
2G	1G	2r
2B-	.	2dd
=54	=54	=54
2A	2r	2cc
2F	2A	4b-
.	.	4a
2.G	2B-	1g
.	2c	.
8FL	.	.
8EJ	.	.
=55	=55	=55
2D	2.d	1.f
1F	.	.
.	8cL	.
.	8B-J	.
.	2A	.
2G	2G	[2b-
=56	=56	=56
2A	1c	2b-]
2F	.	1a
2.G	1B-	.
.	.	2g
4E	.	.
=57	=57	=57
2F	1.A	2a
1A	.	1cc
4G	[2d	[2b-
4F	.	.
=58	=58	=58
1E	2d]	2b-]
.	2c	4a
.	.	4g
1D	1d	2f
.	.	[2b-
=59	=59	=59
2r	2e-i	4b-]
.	.	4a
2AA	2c	2.a
2BB-	2d	.
.	.	4g
2D	2A	4f
.	.	4e
=60	=60	=60
2GG	2B-	2d
2E-i	2G	1g
1D	1A	.
.	.	2f#i
=61	=61	=61
0GGl	0Gl	0gl
==	==	==
*-	*-	*-
!!!RDF**kern: l=long note in original notation
!!!RDF**kern: i=editorial accidental
!!!RDF**kern: N=signum congruentiae
!!!ENC:	Chris Gage 04-22-2015
!!!END:	2015/06/07/
!!!EED:	Jesse Rodin
!!!EEV:	2015/09/21/
!!!ONB:	Translated from MusicXML and edited on 2015/09/21/ by Craig Sapp
!!muse2ps: C^@{COM}^i2I150v95,95,150Q16
